packages/ffe-icons/icons/open/300/lg/indeterminate_check_box.svg

<svg xmlns="http://www.w3.org/2000/svg" height="40" viewBox="0 -960 960 960" width="40"><path d="M300.513-455.949h359.385q10.698 0 17.912-7.25 7.215-7.249 7.215-17.999t-7.215-17.878q-7.214-7.128-17.912-7.128H300.513q-10.699 0-17.913 7.249-7.215 7.249-7.215 18 0 10.75 7.215 17.878 7.214 7.128 17.913 7.128Zm-97.948 315.948q-25.788 0-44.176-18.388t-18.388-44.176v-554.87q0-25.788 18.388-44.176t44.176-18.388h554.87q25.788 0 44.176 18.388t18.388 44.176v554.87q0 25.788-18.388 44.176t-44.176 18.388h-554.87Zm0-50.255h554.87q4.616 0 8.462-3.847 3.847-3.846 3.847-8.462v-554.87q0-4.616-3.847-8.462-3.846-3.847-8.462-3.847h-554.87q-4.616 0-8.462 3.847-3.847 3.846-3.847 8.462v554.87q0 4.616 3.847 8.462 3.846 3.847 8.462 3.847Zm-12.309-579.488V-190.256-769.744Z"/></svg>

<svg xmlns="http://www.w3.org/2000/svg" viewBox="0 -960 960 960" width="32" height="32"><path d="M300.51-455.95H659.9q10.7 0 17.91-7.25 7.21-7.25 7.21-18t-7.21-17.88q-7.21-7.12-17.91-7.12H300.51q-10.7 0-17.91 7.25-7.21 7.24-7.21 17.99 0 10.75 7.21 17.88 7.21 7.13 17.91 7.13ZM202.57-140q-25.79 0-44.18-18.39T140-202.57v-554.86q0-25.79 18.39-44.18T202.57-820h554.86q25.79 0 44.18 18.39T820-757.43v554.86q0 25.79-18.39 44.18T757.43-140H202.57Zm0-50.26h554.86q4.62 0 8.47-3.84 3.84-3.85 3.84-8.47v-554.86q0-4.62-3.84-8.47-3.85-3.84-8.47-3.84H202.57q-4.62 0-8.47 3.84-3.84 3.85-3.84 8.47v554.86q0 4.62 3.84 8.47 3.85 3.84 8.47 3.84Zm-12.31-579.48v579.48-579.48Z"/></svg>
